SVG-Logos/Software/Design/anima.svg

<svg width="85" height="25" viewBox="0 0 85 25" fill="none" xmlns="http://www.w3.org/2000/svg">
<g clip-path="url(#clip0)">
<path d="M0.160833 -0.0004672H21.6908C21.7179 -0.000908623 21.7446 0.00558879 21.7684 0.0184054C21.7923 0.031222 21.8124 0.0499298 21.8269 0.0727445C21.8415 0.0955592 21.8499 0.12172 21.8515 0.148729C21.853 0.175739 21.8477 0.202697 21.8358 0.227032C19.9798 3.97511 17.182 7.17686 13.7167 9.5187C8.11917 13.2954 2.4825 13.6854 0.1625 13.7062C0.141319 13.7066 0.120263 13.7029 0.100566 13.6951C0.0808682 13.6873 0.0629254 13.6756 0.0477905 13.6608C0.0326557 13.646 0.0206335 13.6283 0.012427 13.6087C0.0042205 13.5892 -4.64251e-06 13.5682 3.82798e-09 13.547V0.1587C-1.14985e-06 0.137657 0.00417026 0.116822 0.0122732 0.0974014C0.0203761 0.077981 0.0322499 0.0603604 0.0472069 0.0455584C0.0621639 0.0307564 0.0799072 0.0190678 0.099411 0.0111676C0.118915 0.00326746 0.139791 -0.000687546 0.160833 -0.0004672Z" fill="#FF6250"/>
<path d="M4.8075 24.9993C7.46261 24.9993 9.615 22.8469 9.615 20.1918C9.615 17.5367 7.46261 15.3843 4.8075 15.3843C2.15239 15.3843 0 17.5367 0 20.1918C0 22.8469 2.15239 24.9993 4.8075 24.9993Z" fill="#FFDF90"/>
<path d="M14.6349 24.7146C13.2749 24.1954 12.5515 22.6988 13.0124 21.3738L16.6415 11.0171C17.1065 9.69209 18.5857 9.03959 19.9457 9.55876C21.3057 10.0788 22.029 11.5746 21.5682 12.9004L17.939 23.2571C17.474 24.5821 15.9949 25.2354 14.6349 24.7146Z" fill="#3366FF"/>
<path d="M33.9881 18.322C33.1298 18.322 32.3767 18.1203 31.7289 17.717C31.0701 17.2995 30.5485 16.6976 30.2289 15.9862C29.8756 15.2362 29.6998 14.355 29.7014 13.3428C29.7031 12.3306 29.8825 11.4431 30.2398 10.6803C30.565 9.95702 31.0886 9.34071 31.7498 8.90282C32.4169 8.47372 33.1966 8.25269 33.9898 8.26782C34.8481 8.26782 35.5823 8.47587 36.1923 8.89198C36.8023 9.30809 37.215 9.90143 37.4306 10.672L37.2006 10.8253V8.49865H39.1231V18.1911H37.2014V15.8253L37.4314 15.922C37.2131 16.6909 36.8 17.2834 36.1923 17.6995C35.5845 18.1156 34.8498 18.3231 33.9881 18.322ZM34.4489 16.7837C35.3217 16.7837 35.9978 16.4823 36.4773 15.8795C36.9567 15.2767 37.1967 14.4178 37.1973 13.3028C37.1973 12.1878 36.9573 11.3289 36.4773 10.7262C35.9973 10.1234 35.3211 9.82198 34.4489 9.82198C33.565 9.82198 32.8759 10.1325 32.3814 10.7536C31.887 11.3748 31.6403 12.2359 31.6414 13.337C31.6414 14.4403 31.8881 15.29 32.3814 15.8861C32.8748 16.4823 33.5639 16.7814 34.4489 16.7837Z" fill="white"/>
<path d="M41.9487 18.1866V11.2249C41.9487 10.7757 41.9404 10.3207 41.9196 9.85908C41.8987 9.39741 41.8579 8.94241 41.7954 8.49408H43.6412L43.8146 10.4557L43.6221 10.5707C43.9037 9.81408 44.3554 9.24075 44.9771 8.85075C45.6207 8.45455 46.3648 8.25204 47.1204 8.26742C49.4404 8.26742 50.6007 9.5688 50.6012 12.1716V18.1908H48.6587V12.2457C48.6587 11.4124 48.4921 10.8035 48.1587 10.4191C47.8254 10.0346 47.3126 9.84214 46.6204 9.84158C45.7871 9.84158 45.124 10.098 44.6312 10.6107C44.1385 11.1235 43.8918 11.8096 43.8912 12.6691V18.1883H41.9487V18.1866Z" fill="white"/>
<path d="M53.2188 4.26416H55.4687V6.30249H53.2188V4.26416ZM53.3529 18.1875V8.49499H55.2954V18.1875H53.3529Z" fill="white"/>
<path d="M58.1221 18.1873V11.2257C58.1221 10.7765 58.1137 10.3215 58.0946 9.85982C58.0755 9.403 58.0335 8.94743 57.9688 8.49482H59.8146L59.9879 10.4565L59.7954 10.5332C60.0376 9.81482 60.4415 9.25704 61.0071 8.85982C61.5726 8.4626 62.2457 8.26399 63.0262 8.26399C63.949 8.26399 64.6712 8.49121 65.1929 8.94566C65.7146 9.4001 66.0499 10.1009 66.1987 11.0482L65.7379 10.7215C65.9355 9.99375 66.3812 9.35794 66.9979 8.92399C67.6207 8.47955 68.3543 8.25732 69.1987 8.25732C70.276 8.25732 71.0837 8.58066 71.6221 9.22732C72.1604 9.87399 72.4296 10.8512 72.4296 12.159V18.179H70.4879V12.2432C70.4879 11.4098 70.3421 10.8007 70.0554 10.4157C69.7687 10.0307 69.3054 9.83899 68.6604 9.83899C67.9176 9.83899 67.3315 10.0954 66.9021 10.6082C66.4726 11.1209 66.2576 11.8198 66.2571 12.7048V18.1857H64.3146V12.2432C64.3146 11.4098 64.1671 10.8007 63.8721 10.4157C63.5771 10.0307 63.1157 9.83843 62.4879 9.83899C61.7307 9.83899 61.1379 10.0954 60.7096 10.6082C60.2812 11.1209 60.0662 11.8198 60.0646 12.7048V18.1857H58.1221V18.1873Z" fill="white"/>
<path d="M78.9495 18.3215C78.0911 18.3215 77.3384 18.1198 76.6911 17.7165C76.0323 17.299 75.5107 16.6972 75.1911 15.9857C74.8378 15.2357 74.6611 14.3546 74.6611 13.3423C74.6611 12.3301 74.8406 11.4426 75.1995 10.6798C75.5252 9.95712 76.0483 9.34101 76.7086 8.90234C77.376 8.47309 78.1561 8.25205 78.9495 8.26734C79.8083 8.26734 80.5422 8.4754 81.1511 8.89151C81.76 9.30762 82.1731 9.90096 82.3903 10.6715L82.1595 10.8248V8.49818H84.0828V18.1907H82.1595V15.8248L82.3903 15.9215C82.172 16.6904 81.7589 17.2829 81.1511 17.699C80.5434 18.1151 79.8095 18.3226 78.9495 18.3215ZM79.4095 16.7832C80.2822 16.7832 80.9589 16.4818 81.4395 15.879C81.92 15.2762 82.16 14.4173 82.1595 13.3023C82.1595 12.1873 81.9195 11.3285 81.4395 10.7257C80.9595 10.1229 80.2828 9.82151 79.4095 9.82151C78.5256 9.82151 77.8361 10.1321 77.3411 10.7532C76.8461 11.3743 76.5997 12.2354 76.602 13.3365C76.602 14.4398 76.8484 15.2896 77.3411 15.8857C77.8339 16.4818 78.5234 16.781 79.4095 16.7832Z" fill="white"/>
</g>
<defs>
<clipPath id="clip0">
<rect width="84.0825" height="25" fill="white"/>
</clipPath>
</defs>
</svg>

<svg xmlns="http://www.w3.org/2000/svg" fill="none" viewBox="0 0 85 25"><g clip-path="url(#a)"><path fill="#FF6250" d="M.16 0h21.53a.158.158 0 0 1 .146.227 24.148 24.148 0 0 1-8.12 9.292C8.12 13.295 2.484 13.685.164 13.706A.16.16 0 0 1 0 13.547V.159a.16.16 0 0 1 .16-.16Z"/><path fill="#FFDF90" d="M4.808 25a4.808 4.808 0 1 0 0-9.616 4.808 4.808 0 0 0 0 9.615Z"/><path fill="#36F" d="M14.635 24.715c-1.36-.52-2.083-2.016-1.623-3.341l3.63-10.357c.465-1.325 1.944-1.977 3.304-1.458 1.36.52 2.083 2.016 1.622 3.341L17.94 23.257c-.465 1.325-1.944 1.978-3.304 1.458Z"/><path fill="#fff" d="M33.988 18.322c-.858 0-1.611-.202-2.26-.605a3.98 3.98 0 0 1-1.5-1.73c-.352-.75-.528-1.632-.527-2.644.002-1.012.181-1.9.539-2.663a4.196 4.196 0 0 1 1.51-1.777 4 4 0 0 1 2.24-.635c.858 0 1.592.208 2.202.624.61.416 1.023 1.01 1.239 1.78l-.23.153V8.5h1.922v9.692h-1.922v-2.366l.23.097c-.218.769-.631 1.361-1.239 1.777-.608.417-1.342.624-2.204.623Zm.46-1.538c.874 0 1.55-.302 2.03-.904.479-.603.719-1.462.72-2.577 0-1.115-.24-1.974-.72-2.577s-1.157-.904-2.03-.904c-.883 0-1.572.31-2.067.932-.494.62-.74 1.482-.74 2.583 0 1.103.247 1.953.74 2.55.494.595 1.183.894 2.068.897ZM41.949 18.187v-6.962c0-.45-.009-.904-.03-1.366-.02-.462-.061-.917-.124-1.365h1.846l.174 1.962-.193.115c.282-.757.733-1.33 1.355-1.72a3.936 3.936 0 0 1 2.143-.584c2.32 0 3.48 1.302 3.481 3.905v6.019H48.66v-5.945c0-.834-.167-1.443-.5-1.827-.334-.384-.846-.577-1.539-.577-.833 0-1.496.256-1.989.769-.492.512-.74 1.199-.74 2.058v5.52H41.95v-.002ZM53.219 4.264h2.25v2.038h-2.25V4.264Zm.134 13.924V8.495h1.942v9.693h-1.942ZM58.122 18.187v-6.961c0-.45-.008-.905-.027-1.366-.02-.457-.062-.913-.126-1.365h1.846l.173 1.962-.193.076c.243-.718.646-1.276 1.212-1.673s1.239-.596 2.02-.596c.922 0 1.644.227 2.166.682.522.454.857 1.155 1.006 2.102l-.461-.326a3.234 3.234 0 0 1 1.26-1.798c.623-.444 1.356-.667 2.2-.667 1.078 0 1.886.324 2.424.97.538.647.808 1.624.808 2.932v6.02h-1.942v-5.936c0-.833-.146-1.442-.433-1.827-.286-.385-.75-.577-1.395-.577-.742 0-1.328.256-1.758.77-.43.512-.644 1.21-.645 2.096v5.48h-1.942v-5.942c0-.833-.148-1.442-.443-1.827-.295-.385-.756-.578-1.384-.577-.757 0-1.35.256-1.778.77-.429.512-.644 1.21-.645 2.096v5.48h-1.943v.002ZM78.95 18.322c-.859 0-1.612-.202-2.259-.605a3.98 3.98 0 0 1-1.5-1.731c-.353-.75-.53-1.631-.53-2.644 0-1.012.18-1.9.538-2.662a4.212 4.212 0 0 1 1.51-1.778 4 4 0 0 1 2.24-.635c.86 0 1.593.208 2.202.625.609.416 1.022 1.009 1.24 1.78l-.232.153V8.498h1.924v9.693h-1.924v-2.366l.231.097c-.218.768-.631 1.36-1.239 1.777-.608.416-1.341.624-2.201.622Zm.46-1.539c.872 0 1.549-.301 2.03-.904.48-.603.72-1.462.72-2.577s-.24-1.973-.72-2.576-1.157-.904-2.03-.904c-.884 0-1.574.31-2.069.931-.495.621-.741 1.482-.739 2.583 0 1.104.246 1.954.74 2.55.492.596 1.181.895 2.067.897Z"/></g><defs><clipPath id="a"><path fill="#fff" d="M0 0h84.082v25H0z"/></clipPath></defs></svg>
